packages/ui-icons/src/Basic/24/Car_24.svg

<svg xmlns="http://www.w3.org/2000/svg" viewBox="0 0 32 32"><path d="M25.11 13h-1.46a11 11 0 0 0-2-3.19C20 7.91 17.69 7 14.52 7a16 16 0 0 0-8.81 3.14C3.17 12.19 2 15.87 2 18.6V22h3.11a4 4 0 0 0 7.7 0h6.3a4 4 0 0 0 7.7 0H30v-3.39A5.55 5.55 0 0 0 25.11 13ZM13 9.15A9.13 9.13 0 0 1 14.5 9c2.57 0 4.42.69 5.67 2.11A9 9 0 0 1 21.46 13H13ZM6.95 11.7A12.8 12.8 0 0 1 11 9.64V13H5.77a6.41 6.41 0 0 1 1.18-1.3ZM9 23a2 2 0 1 1 2-2 2 2 0 0 1-2 2Zm14 0a2 2 0 1 1 2-2 2 2 0 0 1-2 2Zm5-3h-1.17a4 4 0 0 0-7.73 0h-6.27a4 4 0 0 0-7.73 0H4v-1.39A10.28 10.28 0 0 1 4.74 15H23s1.48 0 1.89.06A3.53 3.53 0 0 1 28 18.62Z"/></svg>

<svg id="Ready" xmlns="http://www.w3.org/2000/svg" viewBox="0 0 32 32"><title>Megaicons_work_24_1.8_cp</title><path d="M25.11,13,23.65,13a11,11,0,0,0-2-3.19C20,7.91,17.69,7,14.52,7h0a16,16,0,0,0-8.81,3.14C3.17,12.19,2,15.87,2,18.6V22H5.11a4,4,0,0,0,7.7,0h6.3a4,4,0,0,0,7.7,0H30V18.61A5.55,5.55,0,0,0,25.11,13ZM13,9.15A9.13,9.13,0,0,1,14.5,9h0c2.57,0,4.42.69,5.67,2.11A9,9,0,0,1,21.46,13H13ZM6.95,11.7A12.8,12.8,0,0,1,11,9.64V13H5.77A6.41,6.41,0,0,1,6.95,11.7ZM9,23a2,2,0,1,1,2-2A2,2,0,0,1,9,23Zm14,0a2,2,0,1,1,2-2A2,2,0,0,1,23,23ZM28,20H26.83a4,4,0,0,0-7.73,0H12.83a4,4,0,0,0-7.73,0H4V18.61A10.28,10.28,0,0,1,4.74,15H23s1.48,0,1.89.06A3.53,3.53,0,0,1,28,18.62Z"/></svg>
